X:1
T:O Jesu, 86.86.88
T:O Jesu, 86.86.88
T:Hirschberg Gesangbuch, 1741
T:Public Domain Courtesy of the Cyber Hymnal™
C:Hirschberg Gesangbuch, 1741
Z:Public Domain
Z:Courtesy of the Cyber Hymnal™
%%score ( 1 2 ) ( 3 4 )
L:1/8
Q:1/4=107
M:4/4
K:F
V:1 treble 
V:2 treble 
V:3 bass 
V:4 bass 
V:1
 C2 | [DF]2 [EG]2 [FA]2 [FB]2 | [Fc]2 ([GB][FA]) [EG]2 G2 | (A=B) c2 [Gc]2 [DB]2 | [Ec]6 C2 | %5
 [DF]2 [EG]2 [FA]2 [FB]2 | [Fc]2 ([GB][FA]) [EG]2 G2 | (A=B) c2 [Gc]2 [DB]2 | [Ec]6 [Ec]2 | %9
 [Dc]2 [^Fd]2 [GB]2 [DG]2 | [_EA]2 [D^F]2 [DG]2 [DB]2 | A2 [EG]2 [DF]2 [DG]2 | C2 E2 [A,F]2 |] %13
V:2
 C2 | x8 | x8 | F2 (EF) x4 | x6 C2 | x8 | x6 G2 | F2 (EF) x4 | x8 | x8 | x8 | (CD) x6 | %12
 C2 (CB,) x2 |] %13
V:3
 [F,A,]2 | [D,A,]2 [C,C]2 [F,C]2 [D,B,]2 | [A,,A,]2 [B,,D]2 [C,G,]2 [E,C]2 | %3
 [F,C]2 [A,C]2 [G,D]2 G,2 | [C,G,]6 [F,A,]2 | [D,A,]2 [C,C]2 [F,C]2 [D,B,]2 | %6
 [A,,A,]2 [B,,D]2 [C,G,]2 [E,C]2 | [F,C]2 [A,C]2 [G,D]2 G,2 | [C,G,]6 ([A,C][G,B,]) | %9
 [^F,A,]2 [D,A,]2 [G,B,]2 [B,,B,]2 | [C,A,]2 [D,A,]2 [G,,B,]2 ([D,F,][E,G,]) | %11
 [F,A,]2 (CB,) [D,A,]2 [B,,G,]2 | A,2 [C,G,]2 [F,,F,]2 |] %13
V:4
 x2 | x8 | x8 | x6 G,2 | x8 | x8 | x8 | x8 | x8 | x8 | x8 | x2 C,2 x4 | (A,,B,,) x4 |] %13

